/* XPM */
static char * screen_0000_xpm[] = {
"200 200 2 1",
" 	c #C8C8C8C8C8C8",
".	c #FFFFFFFFFFFF",
"                                                                                                                                                                                                        ",
"           ..                                              ..                                                                                                                                           ",
".......    ..                                              ..                           ......                                                                                                          ",
" .    .                           .               .                                     .                                                                                                               ",
" .    .                           .               .                                     .                                                                                                               ",
" .                                .               .                                     .                                                                                                               ",
" .  .    ....   ... ..    ... . ......          ......   ....    .. ..    ...           . ...                                                                                                           ",
" .  .       .     ..  .  .   ..   .               .         .   .  .  .  .   .          ..   .                                                                                                          ",
" ....       .     .   .  .    .   .               .         .   .  .  . .     .         .     .                                                                                                         ",
" .  .       .     .      .        .               .         .   .  .  . .......               .                                                                                                         ",
" .  .       .     .       ....    .               .         .   .  .  . .                     .                                                                                                         ",
" .          .     .           .   .               .         .   .  .  . .               ..    .                                                                                                         ",
" .          .     .     .     .   .   .           .   .     .   .  .  . .     .         .     .                                                                                                         ",
" .          .     .     ..    .   .   .           .   .     .   .  .  .  .    .          .   .                                                                                                          ",
"....    ..............  . ....     ...             ...  .......... .. ..  ....            ...                                                                                                           ",
"                                                                                                                                                                                                        ",
"                                                                                                                                                                                                        ",
"                                                                   ..                                                                                                                                   ",
"  .. .                                       ..                    ..                              .       ..                                                                                           ",
" .  ..                                       .            .                                      ...      .  .                                                                                          ",
".    .                                       .            .                                        .      .  .                                                                                          ",
".                                            .            .                                        .     .    .                                                                                         ",
".         ...     ... .   ...   .. ...    ....          ......   ....    .. ..    ...              .     .    .                                                                                         ",
" ..      .   .   .   ..  .   .   ..   .  .   .            .         .   .  .  .  .   .             .     .    .                                                                                         ",
"   ..   .     . .     . .     .  .    . .    .            .         .   .  .  . .     .            .     .    .                                                                                         ",
"     .  ....... .       .     .  .    . .    .            .         .   .  .  . .......            .     .    .                                                                                         ",
".     . .       .       .     .  .    . .    .            .         .   .  .  . .                  .     .    .                                                                                         ",
".     . .       .       .     .  .    . .    .            .         .   .  .  . .                  .     .    .                                                                                         ",
".     . .     . .     . .     .  .    . .    .            .   .     .   .  .  . .     .            .     .    .                                                                                         ",
"..   .   .    .  .    .  .   .   .    .  .   .            .   .     .   .  .  .  .    .            .      .  .                                                                                          ",
". ...     ....    ....    ...   ...  ...  .....            ...  .......... .. ..  ....           .....    .  .                                                                                          ",
"                                                                                                           ..                                                                                           ",
"                                                                                                                                                                                                        ",
"                   ..                                      ..                                                                                                                                           ",
"....... ..         ..                ..                    ..                              ..      ..                                                                                                   ",
".  .  .  .                           .            .                                       .  .    .  .                                                                                                  ",
".  .  .  .                           .            .                                      .    .   .  .                                                                                                  ",
"   .     .                           .            .                                      ..   .  .    .                                                                                                 ",
"   .     . ...   ....   ... ..    ....          ......   ....    .. ..    ...                 .  .    .                                                                                                 ",
"   .     ..   .     .     ..  .  .   .            .         .   .  .  .  .   .               .   .    .                                                                                                 ",
"   .     .    .     .     .   . .    .            .         .   .  .  . .     .             .    .    .                                                                                                 ",
"   .     .    .     .     .     .    .            .         .   .  .  . .......             .    .    .                                                                                                 ",
"   .     .    .     .     .     .    .            .         .   .  .  . .                  .     .    .                                                                                                 ",
"   .     .    .     .     .     .    .            .         .   .  .  . .                 .      .    .                                                                                                 ",
"   .     .    .     .     .     .    .            .   .     .   .  .  . .     .           .   .  .    .                                                                                                 ",
"   .     .    .     .     .      .   .            .   .     .   .  .  .  .    .          .    .   .  .                                                                                                  ",
" .....  ...  .................    .....            ...  .......... .. ..  ....           ......   .  .                                                                                                  ",
"                                                                                                   ..                                                                                                   ",
"                                                                                                                                                                                                        ",
"                                                                                                                                                                                                        ",
"                                                                                                                                                                                                        ",
"                                                                                                                                                                                                        ",
"                                                                                                                                                                                                        ",
"                                                                                                                                                                                                        ",
"                                                                                                                                                                                                        ",
"                                                                                                                                                                                                        ",
"                                                                                                                                                                                                        ",
"                                                                                                                                                                                                        ",
"                                                                                                                                                                                                        ",
"                                                                                                                                                                                                        ",
"                                                                                                                                                                                                        ",
"                                                                                                                                                                                                        ",
"                                                                                                                                                                                                        ",
"                                                                                                                                                                                                        ",
"                                                                                                                                                                                                        ",
"                                                                                                                                                                                                        ",
"                                                                                                                                                                                                        ",
"                                                                                                                                                                                                        ",
"                                                                                                                                                                                                        ",
"                                                                                                                                                                                                        ",
"                                                                                                                                                                                                        ",
"                                                                                                                                                                                                        ",
"                                                                                                                                                                                                        ",
"                                                                                                                                                                                                        ",
"                                                                                                                                                                                                        ",
"                                                                                                                                                                                                        ",
"                                                                                                                                                                                                        ",
"                                                                                                                                                                                                        ",
"                                                                                                                                                                                                        ",
"                                                                                                                                                                                                        ",
"                                                                                                                                                                                                        ",
"                                                                                                                                                                                                        ",
"                                                                                                                                                                                                        ",
"                                                                                                                                                                                                        ",
"                                                                                                                                                                                                        ",
"                                                                                                                                                                                                        ",
"                                                                                                                                                                                                        ",
"                                                                                                                                                                                                        ",
"                                                                                                                                                                                                        ",
"                                                                                                                                                                                                        ",
"                                                                                                                                                                                                        ",
"                                                                                                                                                                                                        ",
"                                                                                                                                                                                                        ",
"                                                                                                                                                                                                        ",
"                                                                                                                                                                                                        ",
"                                                                                                                                                                                                        ",
"                                                                                                                                                                                                        ",
"                                                                                                                                                                                                        ",
"                                                                                                                                                                                                        ",
"                                                                                                                                                                                                        ",
"                                                                                                                                                                                                        ",
"                                                                                                                                                                                                        ",
"                                                                                                                                                                                                        ",
"                                                                                                                                                                                                        ",
"                                                                                                                                                                                                        ",
"                                                                                                                                                                                                        ",
"                                                                                                                                                                                                        ",
"                                                                                                                                                                                                        ",
"                                                                                                                                                                                                        ",
"                                                                                                                                                                                                        ",
"                                                                                                                                                                                                        ",
"                                                                                                                                                                                                        ",
"                                                                                                                                                                                                        ",
"                                                                                                                                                                                                        ",
"                                                                                                                                                                                                        ",
"                                                                                                                                                                                                        ",
"                                                                                                                                                                                                        ",
"                                                                                                                                                                                                        ",
"                                                                                                                                                                                                        ",
"                                                                                                                                                                                                        ",
"                                                                                                                                                                                                        ",
"                                                                                                                                                                                                        ",
"                                                                                                                                                                                                        ",
"                                                                                                                                                                                                        ",
"                                                                                                                                                                                                        ",
"                                                                                                                                                                                                        ",
"                                                                                                                                                                                                        ",
"                                                                                                                                                                                                        ",
"                                                                                                                                                                                                        ",
"                                                                                                                                                                                                        ",
"                                                                                                                                                                                                        ",
"                                                                                                                                                                                                        ",
"                                                                                                                                                                                                        ",
"                                                                                                                                                                                                        ",
"                                                                                                                                                                                                        ",
"                                                                                                                                                                                                        ",
"                                                                                                                                                                                                        ",
"                                                                                                                                                                                                        ",
"                                                                                                                                                                                                        ",
"                                                                                                                                                                                                        ",
"                                                                                                                                                                                                        ",
"                                                                                                                                                                                                        ",
"                                                                                                                                                                                                        ",
"                                                                                                                                                                                                        ",
"                                                                                                                                                                                                        ",
"                                                                                                                                                                                                        ",
"                                                                                                                                                                                                        ",
"                                                                                                                                                                                                        ",
"                                                                                                                                                                                                        ",
"                                                                                                                                                                                                        ",
"                                                                                                                                                                                                        ",
"                                                                                                                                                                                                        ",
"                                                                                                                                                                                                        ",
"                                                                                                                                                                                                        ",
"                                                                                                                                                                                                        ",
"                                                                                                                                                                                                        ",
"                                                                                                                                                                                                        ",
"                                                                                                                                                                                                        ",
"                                                                                                                                                                                                        ",
"                                                                                                                                                                                                        ",
"                                                                                                                                                                                                        ",
"                                                                                                                                                                                                        ",
"                                                                                                                                                                                                        ",
"                                                                                                                                                                                                        ",
"                                                                                                                                                                                                        ",
"                                                                                                                                                                                                        ",
"                                                                                                                                                                                                        ",
"                                                                                                                                                                                                        ",
"                                                                                                                                                                                                        ",
"                                                                                                                                                                                                        ",
"                                                                                                                                                                                                        ",
"                                                                                                                                                                                                        ",
"                                                                                                                                                                                                        ",
"                                                                                                                                                                                                        ",
"                                                                                                                                                                                                        ",
"                                                                                                                                                                                                        ",
"                                                                                                                                                                                                        ",
"                                                                                                                                                                                                        ",
"                                                                                                                                                                                                        ",
"                                                                                                                                                                                                        ",
"                                                                                                                                                                                                        ",
"                                                                                                                                                                                                        ",
"                                                                                                                                                                                                        ",
"                                                                                                                                                                                                        ",
"                                                                                                                                                                                                        ",
"                                                                                                                                                                                                        ",
"                                                                                                                                                                                                        ",
"                                                                                                                                                                                                        ",
"                                                                                                                                                                                                        ",
"                                                                                                                                                                                                        ",
"                                                                                                                                                                                                        ",
"                                                                                                                                                                                                        ",
"                                                                                                                                                                                                        ",
"                                                                                                                                                                                                        ",
"                                                                                                                                                                                                        ",
"                                                                                                                                                                                                        ",
"                                                                                                                                                                                                        ",
"                                                                                                                                                                                                        ",
"                                                                                                                                                                                                        ",
"                                                                                                                                                                                                        "};
